X:250
T:Where are you going - Olver
%%VWML:SBG-1-2-301-0
F:http://www.vwml.org/record/SBG/1/2/301
Z:Original Sibelius transcriptions by M. & S. Graebe
M:4/4
I:linebreak $
K:Bb
V:1 treble nm="P1"
V:1
 B2 cd dB G2 | g2 fe ed Bd | cB AB B2 AG | A2 BA G2 GA |$ B2 c2 dB G2 | g2 fe edcB | %6
 c d e f gB Bd | dB A^F G4 | %8
T:Where are you going - Parsons
F:http://www.vwml.org/record/SBG/1/2/301
Z:Original Sibelius transcriptions by M. & S. Graebe
M:4/4
I:linebreak $
K:D
V:1 treble nm="P1"
V:1
 D2>E2 F2>G2 A4 =c2>B2 | A4 A3 G A3 F D3 C | D4 F3 G A4 B3 c | d4 c3 B A4 A2 A2 |$ %4
 d4- A3 B =c4 A4 | G4 A3 G F3 E D3 C | D3 E F3 G A4 =c3 c | c4 E3 D D4 x4 | %8

